src/assets/icons/math-symbols,fancy,question-mark.svg

<svg width="48" height="48" viewBox="0 0 48 48" fill="none" xmlns="http://www.w3.org/2000/svg">
<path d="M20.3636 30.2784H25.7472V29.7955C25.7756 27.0256 26.7699 25.733 29.0142 24.3835C31.6705 22.8068 33.4034 20.7188 33.4034 17.3807C33.4034 12.4091 29.3977 9.51136 23.7585 9.51136C18.6023 9.51136 14.3977 12.2102 14.2699 17.892H20.0653C20.1506 15.5767 21.8693 14.3409 23.7301 14.3409C25.6477 14.3409 27.196 15.6193 27.196 17.5938C27.196 19.4545 25.8466 20.6903 24.0994 21.7983C21.7131 23.304 20.3778 24.8239 20.3636 29.7955V30.2784ZM23.1619 39.3693C24.9801 39.3693 26.5568 37.8494 26.571 35.9602C26.5568 34.0994 24.9801 32.5795 23.1619 32.5795C21.2869 32.5795 19.7386 34.0994 19.7528 35.9602C19.7386 37.8494 21.2869 39.3693 23.1619 39.3693Z" fill="black"/>
</svg>

<svg xmlns="http://www.w3.org/2000/svg" width="48" height="48" fill="none" viewBox="0 0 48 48">
  <path fill="#000" d="M20.364 30.278h5.383v-.482c.029-2.77 1.023-4.063 3.267-5.412 2.657-1.577 4.39-3.665 4.39-7.003 0-4.972-4.006-7.87-9.646-7.87-5.156 0-9.36 2.7-9.488 8.381h5.795c.086-2.315 1.804-3.551 3.665-3.551 1.918 0 3.466 1.278 3.466 3.253 0 1.86-1.35 3.096-3.097 4.204-2.386 1.506-3.721 3.026-3.735 7.998v.482zm2.798 9.091c1.818 0 3.395-1.52 3.409-3.409-.014-1.86-1.59-3.38-3.41-3.38-1.874 0-3.422 1.52-3.408 3.38-.014 1.89 1.534 3.41 3.409 3.41z"/>
</svg>
